X: 3069
T: Beanfield
R: polka
M: 2/4
K: Gdorian
|:Gd dG|ee Gf|g>f eB|a>g fB|
Gd dG|ee Gf|g>f eB|A2 A2:|
K:Gmaj
|:dB Be|cc fd|dg ee|a>g fA|
dB Be|cc fd|dg e>d|c2 c2:|

